X: 2
T: Hanley's Tweed
R: reel
M: 4/4
L: 1/8
K: Ador
A2eA fAed|BcAB ~G3B|AE~E2 ABcd|edef g2fg|eaag edef|g2fa gedf|eA~A2 BAGA|1 BedB AcBG:|2 BedB ABcd|||:eaaf g2fg|(3efg dg ed (3Bcd|eaaf ~g3e|dG~G2 BGBd|ea~a2 bg~g2|agab g2ag|edBA BAGA|1 BedB A2 (3Bcd:|2 BedB AcBG||


Tune 1894	Setting 15322

